icons/1_Primary/Questrade.svg

<svg xmlns="http://www.w3.org/2000/svg" width="1024" height="1024" fill="none">
   <g clip-path="url(#a)">
      <path fill="#71A372" d="M512 1024c282.77 0 512-229.23 512-512S794.77 0 512 0 0 229.23 0 512s229.23 512 512 512Z"/>
      <path fill="#fff" d="M416 500.68c44.7-82.31 103.58-144.62 157.08-173.54l-53.73-84.6c-4.23-6.63-11-6.63-15 0L210.36 706c-4.23 6.63-.69 8.57 7 8.57h140.25c-2.17-59.91 15.78-135.82 58.42-213.9M591.4 379.84c-28.81-15.78-91 42.64-138.9 130.56-47.9 87.92-63.22 171.83-34.41 187.72 20.92 11.32 56.13-18.52 93.75-67.57V518.29c0-11.66 7.32-18.06 12.8-7.89L556 569.62c.46-.69.69-1.26 1.14-1.94 47.9-87.91 63.22-171.94 34.3-187.83M813.64 706 695 518.86a557.488 557.488 0 0 1-45.62 109.41 614.042 614.042 0 0 1-33.5 54.3l22.41 32h168.4c7.66 0 11.2-1.94 7-8.57"/>
   </g>
   <defs>
      <clipPath id="a">
         <path fill="#fff" d="M0 0h1024v1024H0z"/>
      </clipPath>
   </defs>
</svg>

<svg width="1024" height="1024" viewBox="0 0 1024 1024" fill="none" xmlns="http://www.w3.org/2000/svg">
<g clip-path="url(#clip0_2_3267)">
<path d="M512 1024C794.77 1024 1024 794.77 1024 512C1024 229.23 794.77 0 512 0C229.23 0 0 229.23 0 512C0 794.77 229.23 1024 512 1024Z" fill="#71A372"/>
<path d="M416 500.68C460.7 418.37 519.58 356.06 573.08 327.14L519.35 242.54C515.12 235.91 508.35 235.91 504.35 242.54L210.36 706C206.13 712.63 209.67 714.57 217.36 714.57H357.61C355.44 654.66 373.39 578.75 416.03 500.67M591.4 379.84C562.59 364.06 500.4 422.48 452.5 510.4C404.6 598.32 389.28 682.23 418.09 698.12C439.01 709.44 474.22 679.6 511.84 630.55V518.29C511.84 506.63 519.16 500.23 524.64 510.4L556 569.62C556.46 568.93 556.69 568.36 557.14 567.68C605.04 479.77 620.36 395.74 591.44 379.85M813.64 706L695 518.86C683.725 556.847 668.432 593.525 649.38 628.27C639.162 646.938 627.98 665.063 615.88 682.57L638.29 714.57H806.69C814.35 714.57 817.89 712.63 813.69 706" fill="white"/>
</g>
<defs>
<clipPath id="clip0_2_3267">
<rect width="1024" height="1024" fill="white"/>
</clipPath>
</defs>
</svg>
